X:295
T: Morgenlied
N: A0644
O: Europa, Mitteleuropa, Deutschland
N: M. Praetorius Mus. Sion. VIII. 1610. No. 253
R: Romanze, Ballade, Lied, religioeses Lied
M: 3/1
L: 1/2
K: F
F2 | F4c2 | A3GF2 | E3DEF | G4G2 | A4B4G2G2 | F4
F2 | F4c2 | A3GF2 | E3DEF | G4G2 | A4B4G2G2 | F4
F2 | G4F2 | E4F2 | G4G2 | A4G2 | c4G2 | A4F4
A4 | c4A2 | A3GF2 | E3DEF | G4G2 | A4B4G2G2 | F4

@@@ Tune index: 608
